svg/briefcase_plus.svg

<svg xmlns="http://www.w3.org/2000/svg" viewBox="0 0 24 24"><path d="M17 14h2v3h3v2h-3v3h-2v-3h-3v-2h3zM10 2h4a2 2 0 0 1 2 2v2h4a2 2 0 0 1 2 2v5.53A5.97 5.97 0 0 0 18 12a6 6 0 0 0-6 6c0 1.09.29 2.12.8 3H4a2 2 0 0 1-2-2V8c0-1.11.89-2 2-2h4V4c0-1.11.89-2 2-2m4 4V4h-4v2z"/></svg>

<?xml version="1.0" encoding="UTF-8"?><!DOCTYPE svg PUBLIC "-//W3C//DTD SVG 1.1//EN" "http://www.w3.org/Graphics/SVG/1.1/DTD/svg11.dtd"><svg xmlns="http://www.w3.org/2000/svg" xmlns:xlink="http://www.w3.org/1999/xlink" version="1.1" id="mdi-briefcase-plus" width="24" height="24" viewBox="0 0 24 24"><path d="M17,14H19V17H22V19H19V22H17V19H14V17H17V14M10,2H14A2,2 0 0,1 16,4V6H20A2,2 0 0,1 22,8V13.53C20.94,12.58 19.54,12 18,12A6,6 0 0,0 12,18C12,19.09 12.29,20.12 12.8,21H4C2.89,21 2,20.1 2,19V8C2,6.89 2.89,6 4,6H8V4C8,2.89 8.89,2 10,2M14,6V4H10V6H14Z" /></svg>
